assets/stackexchange/original.svg

<svg viewBox="0 0 24 24" xmlns="http://www.w3.org/2000/svg" fill="#1E5397"><path d="m21.728 15.577v1.036c0 1.754-1.395 3.177-3.1 3.177h-.904l-4.079 4.21v-4.21h-8.274c-1.704 0-3.099-1.423-3.099-3.181v-1.032zm-19.453-5.114h19.323v3.979h-19.323zm0-5.141h19.323v3.979h-19.323zm16.3-5.322c1.681 0 3.023 1.42 3.023 3.178v1.034h-19.323v-1.034c0-1.756 1.395-3.178 3.1-3.178z"/></svg>

<svg xmlns="http://www.w3.org/2000/svg" fill="#1e5397" viewBox="0 0 24 24"><path d="M21.728 15.577v1.036c0 1.754-1.395 3.177-3.1 3.177h-.904L13.645 24v-4.21H5.371c-1.704 0-3.099-1.423-3.099-3.181v-1.032zM2.275 10.463h19.323v3.979H2.275zm0-5.141h19.323v3.979H2.275zM18.575 0c1.681 0 3.023 1.42 3.023 3.178v1.034H2.275V3.178C2.275 1.422 3.67 0 5.375 0z"/></svg>
